src/assets/images/icons/hours.svg

<?xml version="1.0" encoding="utf-8"?>
<svg width="32" height="33" viewBox="0 0 32 33" fill="none" xmlns="http://www.w3.org/2000/svg">
<path d="M16 0.214844C7.178 0.214844 0 7.39284 0 16.2148C0 25.0368 7.178 32.2148 16 32.2148C24.822 32.2148 32 25.0368 32 16.2148C32 7.39284 24.822 0.214844 16 0.214844ZM15 2.21484H17V6.21484H15V2.21484ZM6 17.2148H2V15.2148H6V17.2148ZM17 30.2148H15V26.2148H17V30.2148ZM23 17.2148H15.5L8.6 8.01484L10.2 6.81484L16.5 15.2148H23V17.2148ZM26 17.2148V15.2148H30V17.2148H26Z" fill="#1F3D56"/>
</svg>

<svg width="32" height="33" fill="none" xmlns="http://www.w3.org/2000/svg"><path d="M16 .215c-8.822 0-16 7.178-16 16s7.178 16 16 16 16-7.178 16-16-7.178-16-16-16zm-1 2h2v4h-2v-4zm-9 15H2v-2h4v2zm11 13h-2v-4h2v4zm6-13h-7.5l-6.9-9.2 1.6-1.2 6.3 8.4H23v2zm3 0v-2h4v2h-4z" fill="#1F3D56"/></svg>
